src/components/content/Icon/icons/recycling-rate.svg

<svg width="24" height="24" viewBox="0 0 24 24" fill="none" xmlns="http://www.w3.org/2000/svg">
<path d="M10.6965 17.416H16.8065C17.1695 17.416 17.4565 17.13 17.4565 16.766V10.319C17.454 10.2025 17.4215 10.0887 17.3621 9.9885C17.3027 9.8883 17.2185 9.80511 17.1175 9.74698L12.3865 5.45698C12.2859 5.4057 12.1745 5.37897 12.0615 5.37897C11.9486 5.37897 11.8372 5.4057 11.7365 5.45698L7.00555 9.74698C6.90268 9.80277 6.81691 9.88546 6.75738 9.9862C6.69784 10.0869 6.6668 10.202 6.66755 10.319V16.766C6.66755 17.13 6.95355 17.416 7.31755 17.416H10.6975H10.6965ZM11.3465 16.116V12.581H12.7765V16.116H11.3465ZM7.99355 10.683L12.0745 7.01798L16.1555 10.683V16.116H14.0755V11.931C14.0763 11.8454 14.0601 11.7605 14.0277 11.6813C13.9953 11.6021 13.9475 11.5301 13.887 11.4696C13.8264 11.4091 13.7545 11.3612 13.6752 11.3288C13.596 11.2964 13.5111 11.2802 13.4255 11.281H10.6965C10.611 11.2802 10.5261 11.2964 10.4469 11.3288C10.3676 11.3612 10.2957 11.4091 10.2351 11.4696C10.1746 11.5301 10.1268 11.6021 10.0944 11.6813C10.062 11.7605 10.0457 11.8454 10.0465 11.931V16.116H7.96655V10.683H7.99355Z" fill="#0B301A"/>
<path d="M21.5105 13.412C21.1465 13.36 20.8085 13.594 20.7565 13.932C20.0285 18.17 16.3635 21.237 12.0485 21.237C7.78455 21.237 4.19755 18.196 3.39155 14.14L3.75555 14.504C3.88555 14.634 4.04155 14.686 4.22355 14.686C4.30989 14.6896 4.39605 14.6753 4.4766 14.644C4.55714 14.6126 4.63033 14.565 4.69155 14.504C4.95155 14.244 4.95155 13.828 4.69155 13.594L3.05355 11.957C3.02392 11.9249 2.98867 11.8984 2.94955 11.879C2.92355 11.879 2.92355 11.853 2.89755 11.853C2.87155 11.853 2.84555 11.827 2.84555 11.827C2.81955 11.827 2.79355 11.801 2.76755 11.801C2.74155 11.801 2.74155 11.801 2.71555 11.775C2.63083 11.749 2.54026 11.749 2.45555 11.775C2.42955 11.775 2.42955 11.775 2.40355 11.801C2.37755 11.801 2.35155 11.801 2.35155 11.827C2.32555 11.827 2.29955 11.853 2.29955 11.853C2.27355 11.853 2.27355 11.879 2.24755 11.879C2.22155 11.905 2.16955 11.931 2.14355 11.957L0.505547 13.594C0.245547 13.854 0.245547 14.27 0.505547 14.504C0.635547 14.634 0.791547 14.686 0.973547 14.686C1.05989 14.6896 1.14605 14.6753 1.2266 14.644C1.30714 14.6126 1.38033 14.565 1.44155 14.504L2.06555 13.88C2.76755 18.768 7.00555 22.563 12.1005 22.563C17.0395 22.563 21.2505 19.028 22.0825 14.166C22.0931 13.9927 22.0412 13.8213 21.9363 13.683C21.8313 13.5446 21.6803 13.4485 21.5105 13.412ZM23.5115 9.59098C23.2515 9.33098 22.8365 9.33098 22.6015 9.59098L21.9515 10.241C21.2505 5.35398 17.0125 1.55798 11.9175 1.55798C6.97855 1.55798 2.76755 5.09398 1.93555 9.95498C1.88355 10.319 2.11755 10.657 2.45555 10.709C2.81955 10.761 3.15755 10.527 3.20955 10.189C3.93755 5.95198 7.60255 2.88398 11.9175 2.88398C16.1815 2.88398 19.7685 5.92598 20.5745 9.98098L20.2105 9.61698C19.9505 9.35698 19.5345 9.35698 19.3005 9.61698C19.0405 9.87698 19.0405 10.293 19.3005 10.527L20.9385 12.165C20.9645 12.191 20.9905 12.217 21.0425 12.243C21.0685 12.243 21.0685 12.269 21.0945 12.269C21.1205 12.269 21.1465 12.295 21.1725 12.295C21.1985 12.295 21.2245 12.321 21.2245 12.321C21.2505 12.321 21.2505 12.321 21.2765 12.347H21.5365C21.5625 12.347 21.5625 12.347 21.5885 12.321C21.6145 12.321 21.6405 12.321 21.6405 12.295C21.6665 12.295 21.6925 12.269 21.7185 12.269C21.7445 12.269 21.7445 12.243 21.7705 12.243C21.7965 12.217 21.8485 12.191 21.8745 12.165L23.5115 10.527C23.6246 10.3973 23.687 10.2311 23.687 10.059C23.687 9.88691 23.6246 9.72066 23.5115 9.59098Z" fill="#0B301A"/>
</svg>

<svg xmlns="http://www.w3.org/2000/svg" width="24" height="24" fill="none" viewBox="0 0 24 24"><path fill="#0b301a" d="M10.697 17.416h6.11c.363 0 .65-.286.65-.65v-6.447a.68.68 0 0 0-.34-.572l-4.73-4.29a.72.72 0 0 0-.65 0l-4.731 4.29a.65.65 0 0 0-.338.572v6.447c0 .364.286.65.65.65zm.65-1.3v-3.535h1.43v3.535zm-3.353-5.433 4.08-3.665 4.082 3.665v5.433h-2.08v-4.185a.644.644 0 0 0-.65-.65h-2.73a.643.643 0 0 0-.65.65v4.185h-2.08v-5.433z"/><path fill="#0b301a" d="M21.51 13.412c-.364-.052-.702.182-.754.52-.727 4.238-4.393 7.305-8.707 7.305-4.264 0-7.851-3.041-8.657-7.097l.364.364c.13.13.286.182.468.182a.63.63 0 0 0 .468-.182c.26-.26.26-.676 0-.91l-1.638-1.637a.4.4 0 0 0-.104-.078c-.026 0-.026-.026-.052-.026s-.052-.026-.052-.026c-.026 0-.052-.026-.078-.026s-.026 0-.052-.026a.44.44 0 0 0-.26 0c-.026 0-.026 0-.052.026-.026 0-.052 0-.052.026-.026 0-.052.026-.052.026-.026 0-.026.026-.052.026-.026.026-.078.052-.104.078L.506 13.594c-.26.26-.26.676 0 .91.13.13.286.182.468.182a.63.63 0 0 0 .468-.182l.624-.624c.702 4.888 4.94 8.683 10.035 8.683 4.938 0 9.15-3.535 9.981-8.397a.726.726 0 0 0-.572-.754m2.002-3.821c-.26-.26-.675-.26-.91 0l-.65.65c-.702-4.887-4.94-8.683-10.035-8.683-4.938 0-9.15 3.536-9.981 8.397-.052.364.182.702.52.754.364.052.702-.182.754-.52.728-4.237 4.393-7.305 8.708-7.305 4.264 0 7.85 3.042 8.657 7.097l-.364-.364c-.26-.26-.676-.26-.91 0-.26.26-.26.676 0 .91l1.638 1.638a.4.4 0 0 0 .104.078c.026 0 .026.026.052.026s.052.026.078.026.052.026.052.026c.025 0 .025 0 .051.026h.26c.026 0 .026 0 .052-.026.026 0 .052 0 .052-.026.026 0 .052-.026.078-.026s.026-.026.052-.026c.027-.026.079-.052.105-.078l1.637-1.638a.71.71 0 0 0 0-.936"/></svg>
